src/topics/icons/semaphore.svg

<svg height="332" preserveAspectRatio="xMidYMid" viewBox="0 0 256 332" width="256" xmlns="http://www.w3.org/2000/svg"><g fill="#4a4a4a" transform="translate(0 280)"><path d="m10.2052207 40.4053673c-2.92615138 0-7.12210357-.717004-9.77185656-1.6002549l1.2698008-5.9073785c2.20914741.6619283 5.13325896 1.2137051 8.11448606 1.2137051 2.3753944 0 2.7619442-.6619282 2.7619442-2.2642231 0-1.7093864-.0560956-1.9307091-4.36219918-2.9802071-6.51423108-1.600255-7.12108367-3.366757-7.12108367-8.3919044 0-5.6870757 2.20812749-8.0594104 10.26855775-8.0594104 2.0418805 0 5.7962072.2753785 8.1705817.883251l-.7180239 6.182757c-2.3733546-.4416255-5.299506-.7730996-7.398502-.7730996-2.31827889 0-2.8710757.6068526-2.8710757 1.8215777 0 1.6573705.22234263 1.8776733 3.4228526 2.5956972 7.6759203 1.7104064 8.2276972 3.3677769 8.2276972 8.7213386 0 5.5218486-2.3192988 8.5581514-9.9931793 8.5581514"/><path d="m39.2479618 22.0756653c0-1.8756334-.550757-3.4218326-3.3127012-3.4218326-2.7588845 0-3.6431554 1.5461992-3.6431554 3.4218326v1.1606694h6.9558566zm-6.9558566 7.1221036v.7741195c0 3.0903586 1.2147251 3.9195538 4.8589004 3.9195538 2.483506 0 5.7962071-.4426454 8.1705817-1.1606693l1.1596494 5.9624542c-2.4284303.8842709-6.350024 1.7124462-10.1023108 1.7124462-8.7233785 0-12.0350598-4.3071235-12.0350598-10.930486v-6.2939283c0-5.799267 2.5936574-10.7662789 11.5363188-10.7662789 8.9447012 0 10.8764302 5.299506 10.8764302 11.1528287v5.6299601z"/><path d="m68.237055 39.8535904v-17.778231c0-1.2147251-.5517769-1.9296893-1.9317291-1.9296893-1.4350279 0-4.0858008.9913626-5.7972271 1.9296893v17.778231h-7.949259v-26.8850996h5.9073785l.8271554 2.0418805c3.3127012-1.6033147 7.6198247-2.5946773 10.7112032-2.5946773 2.3743745 0 3.9756494.9373068 4.9129562 2.5946773 3.0373227-1.4921434 7.0670279-2.5946773 10.7662789-2.5946773 4.5825019 0 6.1837768 3.4228526 6.1837768 8.6111873v18.8267091h-7.9502788v-17.778231c0-1.2147251-.5517769-1.9296893-1.932749-1.9296893-1.4360479 0-4.0847809.9913626-5.7962072 1.9296893v17.778231z"/><path d="m111.749508 30.1932112h-3.808383c-1.713466 0-2.374374.4416255-2.374374 1.9307091 0 1.4911235.606852 2.098996 2.153051 2.098996 1.655331 0 2.81498-.3875697 4.029706-.9393466zm1.434008 9.6606852-.551777-1.7124462c-3.091379 1.7124462-5.852303 2.2642231-7.672861 2.2642231-4.9700716 0-7.0119521-3.5890996-7.0119521-8.1716016 0-5.4096574 2.4835061-7.5637291 8.0053541-7.5637291h5.797228v-2.0418804c0-2.7599044-.495682-3.699251-4.748749-3.699251-2.372335 0-4.74773.2774183-7.2873311.7741195l-1.049498-5.964494c2.5396011-.7710598 6.5693071-1.3238566 9.6637451-1.3238566 9.328191 0 11.372111 2.8149801 11.372111 10.2695777v17.1693386z"/><path d="m134.277406 32.8426582c1.381992.3304542 3.423872.6619283 5.079203.6619283 2.097976 0 2.871075-1.2708208 2.871075-3.0352829v-8.1165259c0-1.8776733-.773099-3.0373227-2.871075-3.0373227-1.820558 0-3.917514 1.1035538-5.079203 2.0979761zm15.900557-2.3733546c0 6.3469641-2.760924 9.9360637-9.053832 9.9360637-2.209148 0-5.026168-.3314741-6.846725-.7730996v11.097753l-7.950279 1.1045737v-38.8661036h6.238852l.829196 2.151012c1.876653-1.2137052 5.354581-2.7038088 8.280733-2.7038088 5.465753 0 8.502055 3.3677769 8.502055 9.9370837z"/><path d="m171.657893 39.8535904v-17.778231c0-1.2147251-.551777-1.9296893-1.932749-1.9296893-1.434008 0-4.082741 1.1025339-5.796207 1.9857849v17.7221354h-7.950279v-37.87270116l7.840128-1.10559362v14.02288448c3.257625-1.4911235 6.514231-2.4824861 9.605609-2.4824861 4.582502 0 6.185817 3.4228526 6.185817 8.6111873v18.8267091z"/><path d="m201.47659 29.7499538v-6.6794582c0-2.5406215-1.324877-3.9756494-4.194933-3.9756494-2.871075 0-4.197992 1.4350279-4.197992 3.9756494v6.6794582c0 2.5396016 1.326917 3.9756494 4.197992 3.9756494 2.870056 0 4.194933-1.4360478 4.194933-3.9756494m-16.340144-.2203028v-6.2378327c0-5.5228685 2.592638-10.8764303 12.145211-10.8764303 9.551554 0 12.145212 5.3535618 12.145212 10.8764303v6.2378327c0 5.5198088-2.593658 10.8754104-12.145212 10.8754104-9.552573 0-12.145211-5.3556016-12.145211-10.8754104"/><path d="m223.17774 23.4571474v16.3962391h-7.950279v-26.8850996h6.625403l.551777 2.5936573c1.65329-1.1045737 5.080223-2.7048287 7.231235-3.1464542l.662948 7.5076335c-2.374375.9373068-5.409657 2.3192988-7.121084 3.5340239"/><path d="m247.803308 22.0756653c0-1.8756334-.551777-3.4218326-3.312701-3.4218326-2.758884 0-3.643155 1.5461992-3.643155 3.4218326v1.1606694h6.955856zm-6.955856 7.1221036v.7741195c0 3.0903586 1.214725 3.9195538 4.85584 3.9195538 2.484526 0 5.799267-.4426454 8.173642-1.1606693l1.157609 5.9624542c-2.42639.8842709-6.346964 1.7124462-10.10333 1.7124462-8.723379 0-12.03404-4.3071235-12.03404-10.930486v-6.2939283c0-5.799267 2.593657-10.7662789 11.537339-10.7662789 8.946741 0 10.87847 5.299506 10.87847 11.1528287v5.6299601z"/></g><g transform="translate(1)"><path d="m162.812545 112.599559c7.845101 19.83258-1.873623 42.267827-21.706203 50.111073-11.032116 4.35942-22.858203 3.272348-32.539826-1.944116l-44.8352464 44.833391c-.2448696 1.988638-1.0165797 7.320116-1.0165797 7.320116l-4.7916522 25.429334c5.5577971 4.897391 9.8281739 8.121507 16.9943188 11.225043 7.6744348 3.322435 13.4715363 4.327884 21.3704348 4.908522l14.7960577-21.329623-.799536-.333913c10.698203 1.688115 21.737739 1.754898 32.75687.072347l-.680812.280116 14.590145 21.37229c7.386898-.467478 12.692406-1.209507 19.953159-4.081159 7.774609-3.073855 12.586667-6.468638 18.582261-11.64058l-4.62284-25.542493-.821797.335768c9.024927-6.550261 16.810666-14.400927 23.245913-23.153159l-.296812.716058 25.431188 4.793507c4.897392-5.559652 8.119653-9.830029 11.225044-16.990609 3.322435-7.676289 4.326029-13.477101 4.908522-21.374144l-21.329624-14.799769-.326492.777276c1.688116-10.614725 1.786434-21.555942.166956-32.484174l.178087.439652 21.36858-14.5975652c-.467478-7.3868985-1.209507-12.6868406-4.075594-19.9475942-3.079421-7.782029-6.470493-12.5885217-11.64429-18.585971l-25.540638 4.6209855s-6.26458 1.0054493-8.299594 1.2503189l-44.189681 44.185971c.717913 1.328232 1.380174 2.69542 1.949681 4.133101" fill="#8eb43f"/><path d="m142.196568 91.9837681c-19.83258-7.8451014-42.267826 1.8736232-50.1092173 21.7080579-4.3612753 11.028406-3.277913 22.854493 1.9422609 32.536116l-44.8352464 44.835246c-1.9886377.246725-7.3201159 1.018435-7.3201159 1.018435l-25.4311884 4.789797c-4.8936812-5.555942-8.12150728-9.828174-11.21947829-16.990608-3.32428986-7.67629-4.32602899-13.473392-4.91223189-21.376l21.33147828-14.790493.3357681.799536c-1.6881159-10.700058-1.7567536-21.739594-.0742029-32.758725l-.2801159.682667-21.37414497-14.593855c.46933334-7.3868985 1.21136232-12.6905507 4.08486957-19.9494492 3.07014493-7.7783189 6.4649275-12.5885218 11.6387246-18.5859711l25.5406377 4.6246957-.3376232.8217971c6.5558261-9.0230725 14.4046377-16.8106667 23.1568696-23.2477681l-.717913.2968116-4.7935073-25.4311884c5.5615073-4.8955363 9.8337391-8.11779714 16.9943188-11.2194783 7.6744348-3.32614492 13.4733913-4.32973913 21.3722899-4.91408695l14.801623 21.33333335-.77913.3264927c10.612869-1.689971 21.554087-1.7901449 32.486029-.1669565l-.443363-.179942 14.597566-21.3704348c7.388753.46933334 12.692405 1.21136232 19.949449 4.08115942 7.780174 3.07385507 12.590377 6.46863768 18.584116 11.63686958l-4.619131 25.5462029s-1.003594 6.2627246-1.254029 8.2977391l-44.184116 44.1878261c-1.326376-.7142029-2.693565-1.3801739-4.131246-1.9478261" fill="#bf1919"/></g></svg>

<?xml version="1.0" encoding="UTF-8" standalone="no"?>
<svg width="256px" height="332px" viewBox="0 0 256 332" version="1.1" xmlns="http://www.w3.org/2000/svg" xmlns:xlink="http://www.w3.org/1999/xlink" preserveAspectRatio="xMidYMid">
	<g>
		<g transform="translate(0.000000, 280.000000)" fill="#4A4A4A">
			<path d="M10.2052207,40.4053673 C7.27906932,40.4053673 3.08311713,39.6883633 0.433364143,38.8051124 L1.70316494,32.8977339 C3.91231235,33.5596622 6.8364239,34.111439 9.817651,34.111439 C12.1930454,34.111439 12.5795952,33.4495108 12.5795952,31.8472159 C12.5795952,30.1378295 12.5234996,29.9165068 8.21739602,28.8670088 C1.70316494,27.2667538 1.09631235,25.5002518 1.09631235,20.4751044 C1.09631235,14.7880287 3.30443984,12.415694 11.3648701,12.415694 C13.4067506,12.415694 17.1610773,12.6910725 19.5354518,13.298945 L18.8174279,19.481702 C16.4440733,19.0400765 13.5179219,18.7086024 11.4189259,18.7086024 C9.10064701,18.7086024 8.5478502,19.315455 8.5478502,20.5301801 C8.5478502,22.1875506 8.77019283,22.4078534 11.9707028,23.1258773 C19.6466231,24.8362837 20.1984,26.4936542 20.1984,31.8472159 C20.1984,37.3690645 17.8791012,40.4053673 10.2052207,40.4053673"></path>
			<path d="M39.2479618,22.0756653 C39.2479618,20.2000319 38.6972048,18.6538327 35.9352606,18.6538327 C33.1763761,18.6538327 32.2921052,20.2000319 32.2921052,22.0756653 L32.2921052,23.2363347 L39.2479618,23.2363347 L39.2479618,22.0756653 L39.2479618,22.0756653 Z M32.2921052,29.1977689 L32.2921052,29.9718884 C32.2921052,33.062247 33.5068303,33.8914422 37.1510056,33.8914422 C39.6345116,33.8914422 42.9472127,33.4487968 45.3215873,32.7307729 L46.4812367,38.6932271 C44.0528064,39.577498 40.1312127,40.4056733 36.3789259,40.4056733 C27.6555474,40.4056733 24.3438661,36.0985498 24.3438661,29.4751873 L24.3438661,23.181259 C24.3438661,17.381992 26.9375235,12.4149801 35.8801849,12.4149801 C44.8248861,12.4149801 46.7566151,17.7144861 46.7566151,23.5678088 L46.7566151,29.1977689 L32.2921052,29.1977689 L32.2921052,29.1977689 Z"></path>
			<path d="M68.237055,39.8535904 L68.237055,22.0753594 C68.237055,20.8606343 67.6852781,20.1456701 66.3053259,20.1456701 C64.870298,20.1456701 62.2195251,21.1370327 60.5080988,22.0753594 L60.5080988,39.8535904 L52.5588398,39.8535904 L52.5588398,12.9684908 L58.4662183,12.9684908 L59.2933737,15.0103713 C62.6060749,13.4070566 66.9131984,12.415694 70.0045769,12.415694 C72.3789514,12.415694 73.9802263,13.3530008 74.9175331,15.0103713 C77.9548558,13.5182279 81.984561,12.415694 85.683812,12.415694 C90.2663139,12.415694 91.8675888,15.8385466 91.8675888,21.0268813 L91.8675888,39.8535904 L83.91731,39.8535904 L83.91731,22.0753594 C83.91731,20.8606343 83.3655331,20.1456701 81.984561,20.1456701 C80.5485131,20.1456701 77.8997801,21.1370327 76.1883538,22.0753594 L76.1883538,39.8535904 L68.237055,39.8535904 L68.237055,39.8535904 Z"></path>
			<path d="M111.749508,30.1932112 L107.941125,30.1932112 C106.227659,30.1932112 105.566751,30.6348367 105.566751,32.1239203 C105.566751,33.6150438 106.173603,34.2229163 107.719802,34.2229163 C109.375133,34.2229163 110.534782,33.8353466 111.749508,33.2835697 L111.749508,30.1932112 L111.749508,30.1932112 Z M113.183516,39.8538964 L112.631739,38.1414502 C109.54036,39.8538964 106.779436,40.4056733 104.958878,40.4056733 C99.9888064,40.4056733 97.9469259,36.8165737 97.9469259,32.2340717 C97.9469259,26.8244143 100.430432,24.6703426 105.95228,24.6703426 L111.749508,24.6703426 L111.749508,22.6284622 C111.749508,19.8685578 111.253826,18.9292112 107.000759,18.9292112 C104.628424,18.9292112 102.253029,19.2066295 99.7134279,19.7033307 L98.6639299,13.7388367 C101.203531,12.9677769 105.233237,12.4149801 108.327675,12.4149801 C117.655866,12.4149801 119.699786,15.2299602 119.699786,22.6845578 L119.699786,39.8538964 L113.183516,39.8538964 L113.183516,39.8538964 Z"></path>
			<path d="M134.277406,32.8426582 C135.659398,33.1731124 137.701278,33.5045865 139.356609,33.5045865 C141.454585,33.5045865 142.227684,32.2337657 142.227684,30.4693036 L142.227684,22.3527777 C142.227684,20.4751044 141.454585,19.315455 139.356609,19.315455 C137.536051,19.315455 135.439095,20.4190088 134.277406,21.4134311 L134.277406,32.8426582 L134.277406,32.8426582 Z M150.177963,30.4693036 C150.177963,36.8162677 147.417039,40.4053673 141.124131,40.4053673 C138.914983,40.4053673 136.097963,40.0738932 134.277406,39.6322677 L134.277406,50.7300207 L126.327127,51.8345944 L126.327127,12.9684908 L132.565979,12.9684908 L133.395175,15.1195028 C135.271828,13.9057976 138.749756,12.415694 141.675908,12.415694 C147.141661,12.415694 150.177963,15.7834709 150.177963,22.3527777 L150.177963,30.4693036 L150.177963,30.4693036 Z"></path>
			<path d="M171.657893,39.8535904 L171.657893,22.0753594 C171.657893,20.8606343 171.106116,20.1456701 169.725144,20.1456701 C168.291136,20.1456701 165.642403,21.248204 163.928937,22.131455 L163.928937,39.8535904 L155.978658,39.8535904 L155.978658,1.98088924 L163.818786,0.875295618 L163.818786,14.8981801 C167.076411,13.4070566 170.333017,12.415694 173.424395,12.415694 C178.006897,12.415694 179.610212,15.8385466 179.610212,21.0268813 L179.610212,39.8535904 L171.657893,39.8535904 L171.657893,39.8535904 Z"></path>
			<path d="M201.47659,29.7499538 L201.47659,23.0704956 C201.47659,20.5298741 200.151713,19.0948462 197.281657,19.0948462 C194.410582,19.0948462 193.083665,20.5298741 193.083665,23.0704956 L193.083665,29.7499538 C193.083665,32.2895554 194.410582,33.7256032 197.281657,33.7256032 C200.151713,33.7256032 201.47659,32.2895554 201.47659,29.7499538 M185.136446,29.529651 L185.136446,23.2918183 C185.136446,17.7689498 187.729084,12.415388 197.281657,12.415388 C206.833211,12.415388 209.426869,17.7689498 209.426869,23.2918183 L209.426869,29.529651 C209.426869,35.0494598 206.833211,40.4050614 197.281657,40.4050614 C187.729084,40.4050614 185.136446,35.0494598 185.136446,29.529651"></path>
			<path d="M223.17774,23.4571474 L223.17774,39.8533865 L215.227461,39.8533865 L215.227461,12.9682869 L221.852864,12.9682869 L222.404641,15.5619442 C224.057931,14.4573705 227.484864,12.8571155 229.635876,12.41549 L230.298824,19.9231235 C227.924449,20.8604303 224.889167,22.2424223 223.17774,23.4571474"></path>
			<path d="M247.803308,22.0756653 C247.803308,20.2000319 247.251531,18.6538327 244.490607,18.6538327 C241.731723,18.6538327 240.847452,20.2000319 240.847452,22.0756653 L240.847452,23.2363347 L247.803308,23.2363347 L247.803308,22.0756653 L247.803308,22.0756653 Z M240.847452,29.1977689 L240.847452,29.9718884 C240.847452,33.062247 242.062177,33.8914422 245.703292,33.8914422 C248.187818,33.8914422 251.502559,33.4487968 253.876934,32.7307729 L255.034543,38.6932271 C252.608153,39.577498 248.687579,40.4056733 244.931213,40.4056733 C236.207834,40.4056733 232.897173,36.0985498 232.897173,29.4751873 L232.897173,23.181259 C232.897173,17.381992 235.49083,12.4149801 244.434512,12.4149801 C253.381253,12.4149801 255.312982,17.7144861 255.312982,23.5678088 L255.312982,29.1977689 L240.847452,29.1977689 L240.847452,29.1977689 Z"></path>
		</g>
		<g transform="translate(1.000000, 0.000000)">
			<path d="M162.812545,112.599559 C170.657646,132.432139 160.938922,154.867386 141.106342,162.710632 C130.074226,167.070052 118.248139,165.98298 108.566516,160.766516 L63.7312696,205.599907 C63.4864,207.588545 62.7146899,212.920023 62.7146899,212.920023 L57.9230377,238.349357 C63.4808348,243.246748 67.7512116,246.470864 74.9173565,249.5744 C82.5917913,252.896835 88.3888928,253.902284 96.2877913,254.482922 L111.083849,233.153299 L110.284313,232.819386 C120.982516,234.507501 132.022052,234.574284 143.041183,232.891733 L142.360371,233.171849 L156.950516,254.544139 C164.337414,254.076661 169.642922,253.334632 176.903675,250.46298 C184.678284,247.389125 189.490342,243.994342 195.485936,238.8224 L190.863096,213.279907 L190.041299,213.615675 C199.066226,207.065414 206.851965,199.214748 213.287212,190.462516 L212.9904,191.178574 L238.421588,195.972081 C243.31898,190.412429 246.541241,186.142052 249.646632,178.981472 C252.969067,171.305183 253.972661,165.504371 254.555154,157.607328 L233.22553,142.807559 L232.899038,143.584835 C234.587154,132.97011 234.685472,122.028893 233.065994,111.100661 L233.244081,111.540313 L254.612661,96.9427478 C254.145183,89.5558493 253.403154,84.2559072 250.537067,76.9951536 C247.457646,69.2131246 244.066574,64.4066319 238.892777,58.4091826 L213.352139,63.0301681 C213.352139,63.0301681 207.087559,64.0356174 205.052545,64.280487 L160.862864,108.466458 C161.580777,109.79469 162.243038,111.161878 162.812545,112.599559" fill="#8EB43F"></path>
			<path d="M142.196568,91.9837681 C122.363988,84.1386667 99.928742,93.8573913 92.0873507,113.691826 C87.7260754,124.720232 88.8094377,136.546319 94.0296116,146.227942 L49.1943652,191.063188 C47.2057275,191.309913 41.8742493,192.081623 41.8742493,192.081623 L16.4430609,196.87142 C11.5493797,191.315478 8.32155362,187.043246 5.22358261,179.880812 C1.89929275,172.204522 0.89755362,166.40742 0.31135072,158.504812 L21.642829,143.714319 L21.9785971,144.513855 C20.2904812,133.813797 20.2218435,122.774261 21.9043942,111.75513 L21.6242783,112.437797 L0.25013333,97.843942 C0.71946667,90.4570435 1.46149565,85.1533913 4.3350029,77.8944928 C7.40514783,70.1161739 10.7999304,65.305971 15.9737275,59.3085217 L41.5143652,63.9332174 L41.176742,64.7550145 C47.7325681,55.731942 55.5813797,47.9443478 64.3336116,41.5072464 L63.6156986,41.804058 L58.8221913,16.3728696 C64.3836986,11.4773333 68.6559304,8.25507246 75.8165101,5.1533913 C83.4909449,1.82724638 89.2899014,0.823652174 97.1888,0.239304348 L111.990423,21.5726377 L111.211293,21.8991304 C121.824162,20.2091594 132.76538,20.1089855 143.697322,21.7321739 L143.253959,21.5522319 L157.851525,0.181797101 C165.240278,0.651130435 170.54393,1.39315942 177.800974,4.26295652 C185.581148,7.33681159 190.391351,10.7315942 196.38509,15.8998261 L191.765959,41.446029 C191.765959,41.446029 190.762365,47.7087536 190.51193,49.7437681 L146.327814,93.9315942 C145.001438,93.2173913 143.634249,92.5514203 142.196568,91.9837681" fill="#BF1919"></path>
		</g>
	</g>
</svg>
